!!!COM: Palestrina, Giovanni Perluigi da
!!!OPR: Missa Viri Galilaei
!!!OMD: Sanctus
!!!OTL: Pleni
**kern	**kern	**kern	**kern
*Ibass	*Itenor	*Icalto	*Icant
!Bassus	!Tenor	!Altus	!Cantus
*clefF4	*clefGv2	*clefG2	*clefG2
*k[b-]	*k[b-]	*k[b-]	*k[b-]
*G:dor	*G:dor	*G:dor	*G:dor
*M4/2	*M4/2	*M4/2	*M4/2
=34	=34	=34	=34
0G	0r	0r	0r
=35	=35	=35	=35
1G	1r	0r	0r
1G	[1d	.	.
=36	=36	=36	=36
1F#	1d]	0r	0r
[1G	1d	.	.
=37	=37	=37	=37
2G]	1d	0r	0r
2F	.	.	.
1E	1c#	.	.
=38	=38	=38	=38
2.D	1.d	0r	0r
4E	.	.	.
4F	.	.	.
4G	.	.	.
[2A	2c	.	.
=39	=39	=39	=39
4A]	2.B-	0r	0r
4G	.	.	.
1G	.	.	.
.	8A	.	.
.	8G	.	.
.	1A	.	.
2F	.	.	.
=40	=40	=40	=40
2.B-	2.G	1r	0r
4A	4A	.	.
2.G	4B-	[1g	.
.	4c	.	.
.	2d	.	.
4F	.	.	.
=41	=41	=41	=41
2.E-	2c	1g]	0r
.	2d	.	.
4D	.	.	.
2C	2e-	1g	.
2BB-	[2d	.	.
=42	=42	=42	=42
1E-	2d]	1g	1r
.	2c	.	.
2D	2d	1f#	[1dd
2D	2A	.	.
=43	=43	=43	=43
4G	2B-	1.g	1dd]
4A	.	.	.
4B-	4G	.	.
4c	4A	.	.
1d	4B-	.	1dd
.	4c	.	.
.	[2d	2f	.
=44	=44	=44	=44
1D	2d]	2f	1dd
.	4c	4e	.
.	4B-	4d	.
1r	1A	1e	1cc#
=45	=45	=45	=45
0r	1.B-	2.d	1.dd
.	.	4e	.
.	.	4f	.
.	.	4g	.
.	2F	[2a	2cc
=46	=46	=46	=46
0d	1G	4a]	2.b-
.	.	4g	.
.	.	1g	.
.	.	.	8a
.	.	.	8g
.	1r	.	1a
.	.	4f	.
.	.	4e	.
=47	=47	=47	=47
1d	2r	2.f	1a
.	4d	.	.
.	4e	4g	.
1d	4f	1a	2r
.	4g	.	.
.	[2a	.	4a
.	.	.	4b-
=48	=48	=48	=48
1c	2a]	1r	4cc
.	.	.	4dd
.	1g	.	2ee
[1d	.	[1a	2dd
.	2f	.	[2ff
=49	=49	=49	=49
2d]	2d	1a]	2ff]
2c	2e	.	2.ee
2.B-	2f	1d	.
.	.	.	4dd
.	2g	.	[2dd
8A	.	.	.
8G	.	.	.
=50	=50	=50	=50
2.A	1e	1a	2dd]
.	.	.	2cc#
4G	.	.	.
2F#	1d	2r	[1dd
[2G	.	2d	.
=51	=51	=51	=51
2G]	2r	4d	1dd]
.	.	4e	.
4F	2.d	4f	.
4E	.	4g	.
1D	.	4a	2r
.	4e	4g	.
.	4f	4a	[2a
.	4g	4b-	.
=52	=52	=52	=52
0r	1.a	1.cc	4a]
.	.	.	4b-
.	.	.	4cc
.	.	.	4dd
.	.	.	4ee
.	.	.	4dd
.	2a	2cc	4ee
.	.	.	4ff
=53	=53	=53	=53
1r	2g	2b-	2gg
.	2.a	2.cc	2ff
2r	.	.	2ee
.	4g	4b-	.
[2D	4f	4a	[2ff
.	4e	4g	.
=54	=54	=54	=54
4D]	1.f	0a	4ff]
4E	.	.	4ee
4F	.	.	1dd
4G	.	.	.
4A	.	.	.
4G	.	.	.
4A	4e	.	[2cc
4B-	4d	.	.
=55	=55	=55	=55
2c	2e	2g	4cc]
.	.	.	4b-
2d	2.f	4f	1a
.	.	4e	.
1B-	.	1d	.
.	4e	.	.
.	[2d	.	2g
=56	=56	=56	=56
1A	2d]	1e	0a
.	2c	.	.
4D	[1f	1d	.
4E	.	.	.
4F	.	.	.
4G	.	.	.
=57	=57	=57	=57
4A	2f]	0r	0r
4B-	.	.	.
1c	2e	.	.
.	2.d	.	.
2B-	.	.	.
.	4e	.	.
=58	=58	=58	=58
2.A	2f	2r	1r
.	4e	2.c	.
4B-	4d	.	.
1c	1e	.	2r
.	.	4d	.
.	.	4e	[2g
.	.	4f	.
=59	=59	=59	=59
0G	1d	4g	4g]
.	.	4f	4a
.	.	4g	4b-
.	.	4a	4cc
.	1r	2b-	4dd
.	.	.	4cc
.	.	2g	4dd
.	.	.	4ee
=60	=60	=60	=60
0r	0r	2a	2ff
.	.	2b-	2dd
.	.	4cc	2ee
.	.	4b-	.
.	.	4a	[2ff
.	.	4g	.
=61	=61	=61	=61
0r	2r	2a	4ff]
.	.	.	4ee
.	2.G	2.b-	4dd
.	.	.	4cc
.	.	.	4dd
.	4A	4a	4cc
.	4B-	2g	2b-
.	4c	.	.
=62	=62	=62	=62
0r	4d	2f	2a
.	4c	.	.
.	4d	2b-	2dd
.	4e	.	.
.	2f	2a	2cc
.	2g	[2b-	2b-
=63	=63	=63	=63
0r	1e-	4b-]	4g
.	.	4a	4a
.	.	1g	4b-
.	.	.	4g
.	1d	.	1a
.	.	2f#	.
=64	=64	=64	=64
2r	2.e-	2g	1g
2.C	.	4c	.
.	4d	4d	.
.	1c	4e-	2r
4D	.	4f	.
4E-	.	4g	[2g
4F	.	4a	.
=65	=65	=65	=65
4G	2B-	4b-	4g]
4F	.	4a	4a
4G	2e-	2.g	4b-
4A	.	.	4cc
2B-	2d	.	4dd
.	.	4g	8cc
.	.	.	8dd
2c	[2c	2g	2ee-
=66	=66	=66	=66
1G	2c]	0g	2dd
.	2B-	.	2dd
1C	1e-	.	1cc
=67	=67	=67	=67
0G	0d	0g	0b
*-	*-	*-	*-
!!!CDT: 1525/^1526/-1594/2/2
!!!OCY: Italia
!!!AGN: Mass (Parody)
!!!AST: renaissance, vocal
!!!ASW: Motet 1569 (Palestrina)
!!!PWK: Masses, Book 12
!!!RNB: Cadence finals: D
!!!YOR: Le Opere Complete, v. 29, p. 159
!!!YOO: Rome, Italy: Fratelli Scalera
!!!END: 1992//
!!!EED: John Miller
!!!YEC: Copyright 2000, John Miller
!!!YEN: United States of America
!!!YEM: Rights to all derivative electronic formats reserved.
!!!YEM: Refer to licensing agreement for further details.
!!!YEM: This file must be accompanied by the licensing agreement.
!!!YEM: A copy of the licensing agreement may be found at http://www.music-cog.ohio-state.edu/HumdrumDatabases/Palestrina/license.txt
!!!EMD: converted to Humdrum by Bret Aarden
